X: 31479
T: Paddy The Caffler
R: polka
M: 2/4
K: Edorian
|:ef/e/ dB|BA G>A|BA F>G|AF D2|
ef/e/ dB|BA G>A|BA FD|E2 E2:|
|:B/c/d ef|ab/a/ gf|ed ef|ed BA|
[1 B/c/d ef|ab/a/ gf|ed ef|e2 ec:|
[2 ef/e/ dB|BA G>A|BA FD|E2 E2||

